X: 058
M: 2/4
L: 1/8
K: D
|:\
df/g/af | dAFA | dBBG | dBBG |\
df/g/af | dBGB | AFFD | AFFD :|
|:\
ce/f/ge | Bd/e/fd | Ac/d/ec | d2D2 :|

